X:34
T: D bhfaghainn mo Rogha de thrir aca, S. 29
N: I0533
O: Irland
S: O'SULLIVAN, Donal: Song of the Irish]
R: Kinderlied]
M: 6/8
L: 1/8
K: A
E | A2AAcd | e2eB2
d | c2cA2c | B2GE2
G | A2AAcd | e2eB2d |
cBABAG | A3A2

@@@ Tune index: 7309
